file-edit.svg

<svg fill="currentColor" viewBox="0 0 24 24"><path d="M6 2c-1.1 0-2 .9-2 2v16c0 1.1.9 2 2 2h4v-1.9l10-10V8l-6-6zm7 1.5L18.5 9H13zm7.1 9.5c-.1 0-.3.1-.4.2l-1 1 2.1 2.1 1-1c.2-.2.2-.6 0-.8l-1.3-1.3c-.1-.1-.2-.2-.4-.2m-2 1.8L12 20.9V23h2.1l6.1-6.1z"/></svg>

<svg  viewBox="0 0 24 24" fill="currentColor"><path  d="M6 2C4.9 2 4 2.9 4 4V20C4 21.1 4.9 22 6 22H10V20.1L20 10.1V8L14 2H6M13 3.5L18.5 9H13V3.5M20.1 13C20 13 19.8 13.1 19.7 13.2L18.7 14.2L20.8 16.3L21.8 15.3C22 15.1 22 14.7 21.8 14.5L20.5 13.2C20.4 13.1 20.3 13 20.1 13M18.1 14.8L12 20.9V23H14.1L20.2 16.9L18.1 14.8Z"/></svg>
